icon_installer/data/icons/scalable/actions/show-birthday-symbolic.svg

<?xml version="1.0" encoding="UTF-8"?>
<svg height="16px" viewBox="0 0 16 16" width="16px" xmlns="http://www.w3.org/2000/svg">
    <g fill="#222222">
        <path d="m 7 4 v 3 h -4 s -2 0 -2 2 v 2 l 3.5 1 l 3.5 -1 l 3.5 1 l 3.5 -1 v -2 c 0 -2 -2 -2 -2 -2 h -4 v -3 z m -6 8 v 4 h 14 v -4 l -3.5 1 l -3.5 -1 l -3.5 1 z m 0 0"/>
        <path d="m 8 0.507812 s -1.058594 0.898438 -0.996094 1.496094 c 0.042969 0.464844 0.527344 0.996094 0.996094 0.996094 s 0.953125 -0.53125 0.996094 -0.996094 c 0.0625 -0.597656 -0.996094 -1.496094 -0.996094 -1.496094 z m 0 0"/>
    </g>
</svg>

<svg xmlns="http://www.w3.org/2000/svg" width="16" height="16"><path fill="#222" d="M7 4v3H3S1 7 1 9v2l3.5 1L8 11l3.5 1 3.5-1V9c0-2-2-2-2-2H9V4zm-6 8v4h14v-4l-3.5 1L8 12l-3.5 1zM8 .508s-1.059.898-.996 1.496C7.047 2.469 7.53 3 8 3s.953-.531.996-.996C9.06 1.406 8 .508 8 .508zm0 0"/></svg>
